Papirus/22x22/panel/keepassx-locked.svg

<?xml version="1.0" encoding="UTF-8" standalone="no"?>
<svg xmlns:dc="http://purl.org/dc/elements/1.1/" xmlns:cc="http://creativecommons.org/ns#" xmlns:rdf="http://www.w3.org/1999/02/22-rdf-syntax-ns#" xmlns:svg="http://www.w3.org/2000/svg" xmlns="http://www.w3.org/2000/svg" version="1.0" width="22" height="22" id="svg2817">
    <metadata id="metadata57">
        <rdf:RDF>
            <cc:Work rdf:about="">
                <dc:format>
                    image/svg+xml
                </dc:format>
                <dc:type rdf:resource="http://purl.org/dc/dcmitype/StillImage"/>
                <dc:title/>
            </cc:Work>
        </rdf:RDF>
    </metadata>
    <path id="path4358" d="M 15 3 C 12.790861 3 11 4.790861 11 7 C 11.002 7.7135065 11.194912 8.4134777 11.558594 9.0273438 L 8.9511719 11.634766 L 4.7089844 7.3925781 C 4.5131158 7.1967095 4.2556191 7.0996094 4 7.0996094 C 3.7443809 7.0996094 3.4888373 7.1967095 3.2929688 7.3925781 C 2.9012315 7.7843153 2.9012316 8.4149035 3.2929688 8.8066406 L 7.5351562 13.048828 L 3.2929688 17.291016 C 2.9012317 17.682753 2.9012318 18.315294 3.2929688 18.707031 C 3.6847058 19.098768 4.3172474 19.098768 4.7089844 18.707031 L 5.4160156 18 L 7 18 L 7 16.416016 L 7.4160156 16 L 9 16 L 9 14.513672 L 13.193359 18.707031 C 13.585097 19.098768 14.215685 19.098768 14.607422 18.707031 C 14.999159 18.315294 14.999159 17.682753 14.607422 17.291016 L 10.365234 13.048828 L 12.972656 10.441406 C 13.586522 10.805088 14.286493 10.997951 15 11 C 17.209139 11 19 9.209139 19 7 C 19 4.790861 17.209139 3 15 3 z M 16 5 C 16.552285 5 17 5.4477152 17 6 C 17 6.5522848 16.552285 7 16 7 C 15.447715 7 15 6.5522848 15 6 C 15 5.4477152 15.447715 5 16 5 z " style="opacity:1;fill:#ffffff;fill-opacity:1"/>
</svg>

<?xml version="1.0" encoding="UTF-8" standalone="no"?>
<svg id="svg2817" xmlns:rdf="http://www.w3.org/1999/02/22-rdf-syntax-ns#" xmlns="http://www.w3.org/2000/svg" height="22" width="22" version="1.0" xmlns:cc="http://creativecommons.org/ns#" xmlns:dc="http://purl.org/dc/elements/1.1/">
 <metadata id="metadata57">
  <rdf:RDF>
   <cc:Work rdf:about="">
    <dc:format>image/svg+xml</dc:format>
    <dc:type rdf:resource="http://purl.org/dc/dcmitype/StillImage"/>
    <dc:title/>
   </cc:Work>
  </rdf:RDF>
 </metadata>
 <path id="path4358" d="m15 3c-2.209 0-4 1.7909-4 4 0.002 0.7135 0.195 1.4135 0.559 2.0273l-2.6078 2.6077-4.2422-4.2424c-0.1959-0.1959-0.4534-0.293-0.709-0.293s-0.5112 0.0971-0.707 0.293c-0.3918 0.3917-0.3918 1.0223 0 1.414l4.2422 4.2424-4.2422 4.242c-0.3918 0.392-0.3918 1.024 0 1.416 0.3917 0.392 1.0242 0.392 1.416 0l0.707-0.707h1.584v-1.584l0.416-0.416h1.584v-1.486l4.193 4.193c0.392 0.392 1.023 0.392 1.414 0 0.392-0.392 0.392-1.024 0-1.416l-4.242-4.242 2.608-2.608c0.614 0.364 1.313 0.557 2.027 0.559 2.209 0 4-1.7909 4-4s-1.791-4-4-4zm1 2c0.552 0 1 0.4477 1 1s-0.448 1-1 1-1-0.4477-1-1 0.448-1 1-1z" fill="#fff"/>
</svg>
